X:110
T:HNSCRVL2- A Painter Once Took Great Delight
S:Robin Hood, 1730
Q:1/4=100
L:1/4
M:6/4
K:G
D|G2AB2c|d2cB2d|e2dc2B|A3A2B|c2de2f|g2fe2d|\
^c2de2f|(d3d2)e/f/|g3f3|G3/2 A/BA2b|g3g2:|]

